assets/icons/traton/report.svg

<svg xmlns="http://www.w3.org/2000/svg" fill="none" viewBox="0 0 32 32"><path fill="#001d21" d="M10 28H4V14h6zm9 0h-6V9h6zm9 0h-6V4h6zM6 26h2V16H6zm9 0h2V11h-2zm9 0h2V6h-2z"/></svg>

<svg xmlns="http://www.w3.org/2000/svg" width="32" height="32" viewBox="0 0 32 32" fill="none">
<path d="M10 28H4V14H10V28ZM19 28H13V9H19V28ZM28 28H22V4H28V28ZM6 26H8V16H6V26ZM15 26H17V11H15V26ZM24 26H26V6H24V26Z" fill="#001D21" />
</svg>
